src/assets/icons/exclamation-triangle.svg

<svg width="14" height="14" viewBox="0 0 14 14" fill="none" xmlns="http://www.w3.org/2000/svg">
<g id="exclamation-triangle">
<g clip-path="url(#clip0_156_4687)">
<path id="Vector" fill-rule="evenodd" clip-rule="evenodd" d="M7 0.799988C7.21531 0.799988 7.41412 0.915359 7.52095 1.1023L13.9209 12.3023C14.0271 12.488 14.0263 12.7162 13.9189 12.9011C13.8116 13.0861 13.6139 13.2 13.4 13.2H0.6C0.386118 13.2 0.188407 13.0861 0.0810539 12.9011C-0.0262993 12.7162 -0.0270612 12.488 0.0790541 12.3023L6.47905 1.1023C6.58588 0.915359 6.78469 0.799988 7 0.799988ZM12.3661 12L7 2.60933L1.63391 12H12.3661ZM7 4.79999C7.33137 4.79999 7.6 5.06862 7.6 5.39999V8.19999C7.6 8.53136 7.33137 8.79999 7 8.79999C6.66863 8.79999 6.4 8.53136 6.4 8.19999V5.39999C6.4 5.06862 6.66863 4.79999 7 4.79999ZM7.6 10.2C7.6 9.86862 7.33137 9.59999 7 9.59999C6.66863 9.59999 6.4 9.86862 6.4 10.2V10.6C6.4 10.9314 6.66863 11.2 7 11.2C7.33137 11.2 7.6 10.9314 7.6 10.6V10.2Z" fill="black"/>
</g>
</g>
<defs>
<clipPath id="clip0_156_4687">
<rect width="14" height="14" fill="white"/>
</clipPath>
</defs>
</svg>

<svg xmlns="http://www.w3.org/2000/svg" fill="none" viewBox="0 0 14 14"><g clip-path="url(#a)"><path fill="#000" fill-rule="evenodd" d="M7 .8a.6.6 0 0 1 .521.302l6.4 11.2a.6.6 0 0 1-.521.898H.6a.6.6 0 0 1-.52-.898l6.4-11.2A.6.6 0 0 1 7 .8M12.366 12 7 2.61 1.634 12zM7 4.8a.6.6 0 0 1 .6.6v2.8a.6.6 0 0 1-1.2 0V5.4a.6.6 0 0 1 .6-.6m.6 5.4a.6.6 0 1 0-1.2 0v.4a.6.6 0 1 0 1.2 0z" clip-rule="evenodd"/></g><defs><clipPath id="a"><path fill="#fff" d="M0 0h14v14H0z"/></clipPath></defs></svg>
